papirus/48x48/apps/preferences-desktop-peripherals.svg

<?xml version="1.0" encoding="UTF-8" standalone="no"?>
<svg id="svg2817" xmlns:rdf="http://www.w3.org/1999/02/22-rdf-syntax-ns#" xmlns="http://www.w3.org/2000/svg" height="48" width="48" version="1.0" xmlns:cc="http://creativecommons.org/ns#" xmlns:dc="http://purl.org/dc/elements/1.1/">
 <metadata id="metadata57">
  <rdf:RDF>
   <cc:Work rdf:about="">
    <dc:format>image/svg+xml</dc:format>
    <dc:type rdf:resource="http://purl.org/dc/dcmitype/StillImage"/>
    <dc:title/>
   </cc:Work>
  </rdf:RDF>
 </metadata>
 <g id="layer7" display="none" transform="translate(-52.273 -2.186)">
  <rect id="rect4169" display="inline" rx="9" ry="9" height="44" width="44" y="2" x="2" fill="#abe1ad"/>
 </g>
 <rect id="rect4203" ry="20" rx="20" transform="matrix(0,-1,-1,0,0,0)" height="40" width="40" y="-44" x="-44" fill="#5c5c5c"/>
 <g id="g4248" opacity=".2" transform="translate(0,2)">
  <path id="path4250" d="m24 9v11.667h-9v-3.5c0-3.5 4.5-8.1667 9-8.1667"/>
  <path id="path4252" d="m23.959 9.0001v8.9064h-8.9589v10.797c0 4.741 3.375 8.2968 9 8.2968 5.625 0.001 9-3.555 9-8.296v-11.217c0-3.637-4.521-8.4859-9.041-8.4859z"/>
 </g>
 <path id="rect3436-2" opacity=".1" d="m24 4c-11.08 0-20 8.92-20 20 0 0.168-0.004 0.333 0 0.5 0.2644-10.846 9.088-19.5 20-19.5s19.736 8.654 20 19.5c0.004-0.167 0-0.332 0-0.5 0-11.08-8.92-20-20-20z" fill="#fff"/>
 <g id="g4244" transform="translate(0,1)">
  <path id="path61" d="m24 9v11.667h-9v-3.5c0-3.5 4.5-8.1667 9-8.1667" fill="#f2f2f2"/>
  <path id="path63" d="m23.959 9.0001v8.9064h-8.9589v10.797c0 4.741 3.375 8.2968 9 8.2968 5.625 0.001 9-3.555 9-8.296v-11.217c0-3.637-4.521-8.4859-9.041-8.4859z" fill="#f9f9f9"/>
 </g>
 <path id="path69" d="m24 16c0.551 0 1 0.576 1 1.2857v3.4286c0 0.709-0.449 1.285-1 1.285s-1-0.576-1-1.286v-3.4286c0-0.709 0.449-1.285 1-1.285" fill="#5d5d5d"/>
 <path id="rect4218" opacity=".2" d="m4.0117 24.5c-0.0041 0.167-0.0117 0.332-0.0117 0.5 0 11.08 8.92 20 20 20s20-8.92 20-20c0-0.168-0.008-0.333-0.012-0.5-0.264 10.846-9.076 19.5-19.988 19.5s-19.724-8.654-19.988-19.5z"/>
</svg>

<?xml version="1.0" encoding="UTF-8" standalone="no"?>
<svg
   xmlns:dc="http://purl.org/dc/elements/1.1/"
   xmlns:cc="http://creativecommons.org/ns#"
   xmlns:rdf="http://www.w3.org/1999/02/22-rdf-syntax-ns#"
   xmlns:svg="http://www.w3.org/2000/svg"
   xmlns="http://www.w3.org/2000/svg"
   version="1.0"
   width="48"
   height="48"
   id="svg2817">
  <defs
     id="defs18" />
  <metadata
     id="metadata57">
    <rdf:RDF>
      <cc:Work
         rdf:about="">
        <dc:format>image/svg+xml</dc:format>
        <dc:type
           rdf:resource="http://purl.org/dc/dcmitype/StillImage" />
        <dc:title></dc:title>
      </cc:Work>
    </rdf:RDF>
  </metadata>
  <g
     transform="translate(-52.273 -2.186)"
     display="none"
     id="layer7">
    <rect
       fill="#abe1ad"
       x="2"
       y="2"
       width="44"
       height="44"
       ry="9"
       rx="9"
       display="inline"
       id="rect4169" />
  </g>
  <rect
     x="-44"
     y="-44"
     width="40"
     height="40"
     transform="matrix(0,-1,-1,0,0,0)"
     rx="20"
     ry="20"
     id="rect4203"
     style="fill:#5c5c5c" />
  <g
     transform="translate(0,2)"
     id="g4248"
     style="opacity:0.2">
    <path
       d="m 24,9 0,11.667 -9,0 0,-3.5 c 0,-3.5 4.5,-8.1667 9,-8.1667"
       id="path4250" />
    <path
       d="m 23.959,9.0001 0,8.9064 -8.9589,0 0,10.797 c 0,4.741 3.375,8.2968 9,8.2968 5.625,10e-4 9,-3.555 9,-8.296 l 0,-11.217 c 0,-3.637 -4.521,-8.4859 -9.041,-8.4859 z"
       id="path4252" />
  </g>
  <path
     d="M 24,4 C 12.92,4 4,12.92 4,24 4,24.168 3.996,24.333 4,24.5 4.2644,13.654 13.088,5 24,5 34.912,5 43.736,13.654 44,24.5 44.004,24.333 44,24.168 44,24 44,12.92 35.08,4 24,4 Z"
     id="rect3436-2"
     style="opacity:0.1;fill:#ffffff" />
  <g
     style="fill:#cccccc;fill-opacity:1"
     transform="translate(0,1)"
     id="g4244">
    <path
       style="fill:#cccccc;fill-opacity:1"
       id="path61"
       transform="translate(0,-1)"
       d="m 24,10 c -0.01239,0 -0.02472,0.0019 -0.03711,0.002 -0.0013,8e-6 -0.0026,-8e-6 -0.0039,0 C 19.472717,10.030209 15,14.678617 15,18.167969 l 0,0.738281 0,2.761719 0,8.035156 C 15,34.444125 18.375,38 24,38 c 5.625,10e-4 9,-3.553922 9,-8.294922 l 0,-11.21875 C 33,14.86034 28.506279,10.033125 24,10.003906 L 24,10 Z" />
  </g>
  <path
     d="m 24,16 c 0.551,0 1,0.576 1,1.2857 l 0,3.4286 c 0,0.709 -0.449,1.285 -1,1.285 -0.551,0 -1,-0.576 -1,-1.286 l 0,-3.4286 c 0,-0.709 0.449,-1.285 1,-1.285"
     id="path69"
     style="fill:#5d5d5d" />
  <path
     d="M 4.0117,24.5 C 4.0076,24.667 4,24.832 4,25 4,36.08 12.92,45 24,45 35.08,45 44,36.08 44,25 44,24.832 43.992,24.667 43.988,24.5 43.724,35.346 34.912,44 24,44 13.088,44 4.276,35.346 4.012,24.5 Z"
     id="rect4218"
     style="opacity:0.2" />
</svg>
